storage/app/icons/phosphoricons/bold/calendar-check-bold.svg

<svg xmlns="http://www.w3.org/2000/svg" fill="currentColor" viewBox="0 0 256 256"><path d="M208 28h-20v-4a12 12 0 0 0-24 0v4H92v-4a12 12 0 0 0-24 0v4H48a20 20 0 0 0-20 20v160a20 20 0 0 0 20 20h160a20 20 0 0 0 20-20V48a20 20 0 0 0-20-20M68 52a12 12 0 0 0 24 0h72a12 12 0 0 0 24 0h16v24H52V52ZM52 204V100h152v104Zm120.49-84.49a12 12 0 0 1 0 17l-48 48a12 12 0 0 1-17 0l-24-24a12 12 0 0 1 17-17L116 159l39.51-39.52a12 12 0 0 1 16.98.03"/></svg>

<svg xmlns="http://www.w3.org/2000/svg" viewBox="0 0 256 256" fill="currentColor"><path d="M208,28H188V24a12,12,0,0,0-24,0v4H92V24a12,12,0,0,0-24,0v4H48A20,20,0,0,0,28,48V208a20,20,0,0,0,20,20H208a20,20,0,0,0,20-20V48A20,20,0,0,0,208,28ZM68,52a12,12,0,0,0,24,0h72a12,12,0,0,0,24,0h16V76H52V52ZM52,204V100H204V204Zm120.49-84.49a12,12,0,0,1,0,17l-48,48a12,12,0,0,1-17,0l-24-24a12,12,0,0,1,17-17L116,159l39.51-39.52A12,12,0,0,1,172.49,119.51Z"/></svg>
